packages/components/icons/assets/Bike.svg

<svg viewBox="0 0 24 24" xmlns="http://www.w3.org/2000/svg" data-title="Bike" fill="currentColor" stroke="none">
  <path d="M20.7916 11.4516C20.4049 11.0404 19.9424 10.715 19.432 10.4951C18.9217 10.2752 18.374 10.1652 17.8219 10.1718H17.188L15.7865 6.15824C15.6653 5.82078 15.4489 5.52953 15.166 5.32285C14.8831 5.11616 14.5469 5.00371 14.2016 5.0003H12.8669C12.7509 4.99603 12.6354 5.01707 12.5276 5.06204C12.4199 5.10702 12.3224 5.17492 12.2413 5.26147C12.0847 5.4397 11.9979 5.67268 11.9979 5.91444C11.9979 6.1562 12.0847 6.38918 12.2413 6.56741C12.3224 6.65396 12.4199 6.72192 12.5276 6.76689C12.6354 6.81187 12.7509 6.83286 12.8669 6.82859H14.1765L15.3527 10.1979H11.4237L11.1651 9.44046C11.3974 9.44046 11.6202 9.34418 11.7845 9.17275C11.9488 9.00131 12.041 8.76876 12.041 8.52632C12.041 8.28387 11.9488 8.05137 11.7845 7.87994C11.6202 7.7085 11.3974 7.61217 11.1651 7.61217H8.66257C8.548 7.60912 8.43406 7.63073 8.32785 7.67567C8.22165 7.72061 8.12546 7.78789 8.04528 7.87335C7.96235 7.95804 7.89729 8.05987 7.8542 8.17231C7.8111 8.28474 7.79094 8.4053 7.79503 8.52632C7.79227 8.64641 7.81223 8.76589 7.85374 8.87793C7.89525 8.98997 7.95748 9.09237 8.03693 9.17928C8.20525 9.34753 8.4295 9.44114 8.66257 9.44046H9.25486L10.7147 13.7065H10.2892C10.1008 12.7663 9.62689 11.9144 8.93786 11.2775C8.13814 10.541 7.09847 10.1522 6.03257 10.1911C4.96667 10.23 3.95554 10.6935 3.20702 11.4865C2.4498 12.2925 2.01792 13.3712 2.00055 14.4998C1.98317 15.6285 2.38162 16.7211 3.11364 17.5521C3.84566 18.3832 4.85541 18.8892 5.93451 18.9658C7.01361 19.0425 8.0797 18.6838 8.91281 17.9639C9.61732 17.3362 10.1016 16.4816 10.2892 15.5348H13.6927C13.8958 16.479 14.3877 17.3286 15.0941 17.9552C15.8961 18.6708 16.928 19.0427 17.9821 18.9958C19.0363 18.949 20.0342 18.4869 20.7749 17.7027C21.56 16.8705 22 15.7494 22 14.5815C22 13.4136 21.56 12.2926 20.7749 11.4603L20.7916 11.4516ZM17.8219 14.6294C18.0238 14.5349 18.1865 14.3682 18.2807 14.1593C18.3279 14.0482 18.3522 13.9281 18.3522 13.8067C18.3522 13.6852 18.3279 13.5651 18.2807 13.4541L17.7636 12.0437C18.2356 12.0688 18.6911 12.2328 19.0775 12.5169C19.4639 12.801 19.7653 13.1935 19.9468 13.6489C20.1284 14.1044 20.1827 14.6042 20.1033 15.0905C20.024 15.5768 19.8143 16.0297 19.4986 16.3968C19.032 16.8676 18.4084 17.1307 17.7594 17.1307C17.1104 17.1307 16.4867 16.8676 16.0201 16.3968C15.6563 16.0042 15.4196 15.5024 15.3433 14.962C15.267 14.4216 15.3549 13.8699 15.5946 13.3844C15.7268 13.1127 15.9081 12.8703 16.1285 12.6705L16.6124 14.0809C16.6494 14.1983 16.71 14.3062 16.7901 14.3972C16.8701 14.4883 16.9679 14.5606 17.0768 14.6092C17.1857 14.6577 17.3032 14.6816 17.4217 14.6791C17.5401 14.6766 17.6566 14.6478 17.7636 14.5946L17.8219 14.6294ZM14.4185 12.0175C14.2688 12.2203 14.1454 12.4428 14.0514 12.6792C13.9119 13.0079 13.8002 13.3488 13.7177 13.6978H12.6166L12.016 12.0175H14.4185ZM6.39361 15.2649C6.47475 15.3515 6.57228 15.4195 6.68 15.4644C6.78773 15.5094 6.90329 15.5304 7.01925 15.5262H8.44567C8.29324 15.9646 8.03115 16.3523 7.68658 16.6493C7.26501 17.0056 6.73576 17.1939 6.19341 17.1803C5.86878 17.1899 5.54582 17.1282 5.24548 16.9992C4.94515 16.8702 4.67411 16.6769 4.44994 16.4316C3.99391 15.9438 3.73867 15.2892 3.73867 14.6076C3.73867 13.9261 3.99391 13.2715 4.44994 12.7837C4.67578 12.5413 4.94729 12.3504 5.24737 12.223C5.54744 12.0956 5.86959 12.0346 6.19341 12.0437C6.73565 12.0309 7.26466 12.2191 7.68658 12.5747C8.03115 12.8717 8.29324 13.2594 8.44567 13.6978H7.01925C6.90329 13.6936 6.78773 13.7146 6.68 13.7596C6.57228 13.8045 6.47475 13.8725 6.39361 13.959C6.23343 14.1353 6.14413 14.369 6.14413 14.612C6.14413 14.8549 6.23343 15.0886 6.39361 15.2649Z"/>
</svg>

<svg viewBox="0 0 24 24" xmlns="http://www.w3.org/2000/svg" data-title="Bike" fill="currentColor" stroke="none">
  <path d="m20.79,11.45c-.39-.41-.85-.74-1.36-.96-.51-.22-1.06-.33-1.61-.32h-.63l-1.4-4.01c-.12-.34-.34-.63-.62-.84-.28-.21-.62-.32-.96-.32h-1.33c-.12,0-.23.02-.34.06-.11.04-.21.11-.29.2-.16.18-.24.41-.24.65s.09.47.24.65c.08.09.18.15.29.2.11.04.22.07.34.06h1.31l1.18,3.37h-3.93l-.26-.76c.23,0,.46-.1.62-.27.16-.17.26-.4.26-.65s-.09-.47-.26-.65c-.16-.17-.39-.27-.62-.27h-2.5c-.11,0-.23.02-.33.06-.11.04-.2.11-.28.2-.08.08-.15.19-.19.3-.04.11-.06.23-.06.35,0,.12.02.24.06.35.04.11.1.21.18.3.17.17.39.26.63.26h.59l1.46,4.27h-.43c-.19-.94-.66-1.79-1.35-2.43-.8-.74-1.84-1.13-2.91-1.09-1.07.04-2.08.5-2.83,1.3-.76.81-1.19,1.88-1.21,3.01-.02,1.13.38,2.22,1.11,3.05.73.83,1.74,1.34,2.82,1.41,1.08.08,2.15-.28,2.98-1,.7-.63,1.19-1.48,1.38-2.43h3.4c.2.94.69,1.79,1.4,2.42.8.72,1.83,1.09,2.89,1.04,1.05-.05,2.05-.51,2.79-1.29.79-.83,1.23-1.95,1.23-3.12s-.44-2.29-1.23-3.12h.02Zm-2.97,3.18c.2-.09.36-.26.46-.47.05-.11.07-.23.07-.35s-.02-.24-.07-.35l-.52-1.41c.47.03.93.19,1.31.47.39.28.69.68.87,1.13.18.46.24.96.16,1.44-.08.49-.29.94-.6,1.31-.47.47-1.09.73-1.74.73s-1.27-.26-1.74-.73c-.36-.39-.6-.89-.68-1.43-.08-.54.01-1.09.25-1.58.13-.27.31-.51.53-.71l.48,1.41c.04.12.1.23.18.32.08.09.18.16.29.21.11.05.23.07.34.07.12,0,.23-.03.34-.08l.06.03Zm-3.4-2.61c-.15.2-.27.43-.37.66-.14.33-.25.67-.33,1.02h-1.1l-.6-1.68h2.4Zm-8.02,3.25c.08.09.18.15.29.2.11.05.22.07.34.06h1.43c-.15.44-.41.83-.76,1.12-.42.36-.95.54-1.49.53-.32,0-.65-.05-.95-.18-.3-.13-.57-.32-.8-.57-.46-.49-.71-1.14-.71-1.82s.26-1.34.71-1.82c.23-.24.5-.43.8-.56.3-.13.62-.19.95-.18.54-.01,1.07.18,1.49.53.34.3.61.68.76,1.12h-1.43c-.12,0-.23.02-.34.06-.11.04-.21.11-.29.2-.16.18-.25.41-.25.65s.09.48.25.65Z"/>
</svg>
